Lila_HD/apps/scalable/rust.svg

<?xml version="1.0" encoding="UTF-8" standalone="no"?>
<!-- Created with Inkscape (http://www.inkscape.org/) -->

<svg
   xmlns:dc="http://purl.org/dc/elements/1.1/"
   xmlns:cc="http://creativecommons.org/ns#"
   xmlns:rdf="http://www.w3.org/1999/02/22-rdf-syntax-ns#"
   xmlns:svg="http://www.w3.org/2000/svg"
   xmlns="http://www.w3.org/2000/svg"
   xmlns:xlink="http://www.w3.org/1999/xlink"
   xmlns:sodipodi="http://sodipodi.sourceforge.net/DTD/sodipodi-0.dtd"
   xmlns:inkscape="http://www.inkscape.org/namespaces/inkscape"
   version="1.1"
   width="48"
   height="48"
   id="svg6649"
   inkscape:version="0.92.2 2405546, 2018-03-11"
   sodipodi:docname="steam_icon_252490.svg">
  <sodipodi:namedview
     pagecolor="#ffffff"
     bordercolor="#666666"
     borderopacity="1"
     objecttolerance="10"
     gridtolerance="10"
     guidetolerance="10"
     inkscape:pageopacity="0"
     inkscape:pageshadow="2"
     inkscape:window-width="1920"
     inkscape:window-height="1023"
     id="namedview45"
     showgrid="false"
     inkscape:zoom="9.8333333"
     inkscape:cx="-5.3934265"
     inkscape:cy="22.661032"
     inkscape:window-x="0"
     inkscape:window-y="28"
     inkscape:window-maximized="1"
     inkscape:current-layer="svg6649" />
  <defs
     id="defs6651">
    <linearGradient
       x1="167.98311"
       y1="8.50811"
       x2="167.98311"
       y2="54.780239"
       id="linearGradient5414"
       xlink:href="#linearGradient5803"
       gradientUnits="userSpaceOnUse"
       gradientTransform="matrix(0.71090703,0,0,0.71090703,-91.334988,2.139763)" />
    <linearGradient
       id="linearGradient5803">
      <stop
         id="stop5805"
         style="stop-color:#fff5ef;stop-opacity:1"
         offset="0" />
      <stop
         id="stop5807"
         style="stop-color:#fef8dd;stop-opacity:1"
         offset="1" />
    </linearGradient>
    <linearGradient
       x1="23.99999"
       y1="4.999989"
       x2="23.99999"
       y2="43"
       id="linearGradient3058"
       xlink:href="#linearGradient3924-1"
       gradientUnits="userSpaceOnUse"
       gradientTransform="translate(4e-6,1.000006)" />
    <linearGradient
       id="linearGradient3924-1">
      <stop
         id="stop3926-3"
         style="stop-color:#ffffff;stop-opacity:1"
         offset="0" />
      <stop
         id="stop3928-91"
         style="stop-color:#ffffff;stop-opacity:0.23529412"
         offset="0.06316455" />
      <stop
         id="stop3930-6"
         style="stop-color:#ffffff;stop-opacity:0.15686275"
         offset="0.95056331" />
      <stop
         id="stop3932-6"
         style="stop-color:#ffffff;stop-opacity:0.39215687"
         offset="1" />
    </linearGradient>
    <radialGradient
       cx="6.7304144"
       cy="9.9571075"
       r="12.671875"
       fx="6.2001843"
       fy="9.9571075"
       id="radialGradient5521-1"
       xlink:href="#linearGradient2867-449-88-871-390-598-476-591-434-148-57-177-8-3-3-6-4-8-8-8"
       gradientUnits="userSpaceOnUse"
       gradientTransform="matrix(0,9.4975523,-11.65996,0,140.93055,-79.160978)" />
    <linearGradient
       id="linearGradient2867-449-88-871-390-598-476-591-434-148-57-177-8-3-3-6-4-8-8-8">
      <stop
         id="stop3750-1-0-7-6-6-1-3-9"
         style="stop-color:#ff6845;stop-opacity:1;"
         offset="0" />
      <stop
         id="stop3752-3-7-4-0-32-8-923-0"
         style="stop-color:#e02a00;stop-opacity:1;"
         offset="0.26238" />
      <stop
         id="stop3754-1-8-5-2-7-6-7-1"
         style="stop-color:#cc2700;stop-opacity:1;"
         offset="0.704952" />
      <stop
         id="stop3756-1-6-2-6-6-1-96-6"
         style="stop-color:#901b00;stop-opacity:1;"
         offset="1" />
    </linearGradient>
    <radialGradient
       cx="4.9929786"
       cy="43.5"
       r="2.5"
       fx="4.9929786"
       fy="43.5"
       id="radialGradient3013"
       xlink:href="#linearGradient3688-166-749"
       gradientUnits="userSpaceOnUse"
       gradientTransform="matrix(2.003784,0,0,1.4,27.98813,-17.4)" />
    <linearGradient
       id="linearGradient3688-166-749">
      <stop
         id="stop2883"
         style="stop-color:#181818;stop-opacity:1"
         offset="0" />
      <stop
         id="stop2885"
         style="stop-color:#181818;stop-opacity:0"
         offset="1" />
    </linearGradient>
    <radialGradient
       cx="4.9929786"
       cy="43.5"
       r="2.5"
       fx="4.9929786"
       fy="43.5"
       id="radialGradient3015"
       xlink:href="#linearGradient3688-464-309"
       gradientUnits="userSpaceOnUse"
       gradientTransform="matrix(2.003784,0,0,1.4,-20.01187,-104.4)" />
    <linearGradient
       id="linearGradient3688-464-309">
      <stop
         id="stop2889"
         style="stop-color:#181818;stop-opacity:1"
         offset="0" />
      <stop
         id="stop2891"
         style="stop-color:#181818;stop-opacity:0"
         offset="1" />
    </linearGradient>
    <linearGradient
       id="linearGradient3702-501-757">
      <stop
         id="stop2895"
         style="stop-color:#181818;stop-opacity:0"
         offset="0" />
      <stop
         id="stop2897"
         style="stop-color:#181818;stop-opacity:1"
         offset="0.5" />
      <stop
         id="stop2899"
         style="stop-color:#181818;stop-opacity:0"
         offset="1" />
    </linearGradient>
    <linearGradient
       x1="25.058096"
       y1="47.027729"
       x2="25.058096"
       y2="39.999443"
       id="linearGradient6647"
       xlink:href="#linearGradient3702-501-757"
       gradientUnits="userSpaceOnUse" />
    <linearGradient
       inkscape:collect="always"
       xlink:href="#linearGradient5803"
       id="linearGradient3022"
       gradientUnits="userSpaceOnUse"
       gradientTransform="matrix(0.71090703,0,0,0.71090703,-91.334988,2.139763)"
       x1="167.98311"
       y1="8.50811"
       x2="167.98311"
       y2="54.780239" />
    <linearGradient
       y2="47.000011"
       x2="90"
       y1="47.000011"
       x1="6"
       gradientTransform="matrix(1.1059895,0,0,1.1071426,-5.1375019,-4.0356856)"
       gradientUnits="userSpaceOnUse"
       id="linearGradient4071"
       xlink:href="#linearGradient6139-0"
       inkscape:collect="always" />
    <linearGradient
       id="linearGradient6139-0">
      <stop
         style="stop-color:#b2babc;stop-opacity:1"
         offset="0"
         id="stop6141-2" />
      <stop
         id="stop6151-0"
         offset="0.25"
         style="stop-color:#ffffff;stop-opacity:1;" />
      <stop
         id="stop6147-1"
         offset="0.5"
         style="stop-color:#96a1a4;stop-opacity:1" />
      <stop
         style="stop-color:#fbf9f9;stop-opacity:1;"
         offset="0.75"
         id="stop6149-4" />
      <stop
         style="stop-color:#b2b9bc;stop-opacity:1"
         offset="1"
         id="stop6143-4" />
    </linearGradient>
    <linearGradient
       gradientUnits="userSpaceOnUse"
       y2="88.171875"
       x2="94.5"
       y1="88.171875"
       x1="1.5"
       id="linearGradient4129"
       xlink:href="#linearGradient3832-0-6-1-1"
       inkscape:collect="always"
       gradientTransform="matrix(0.99895835,0,0,0.99999999,-2.9511323e-6,2.5280589e-5)" />
    <linearGradient
       id="linearGradient3832-0-6-1-1">
      <stop
         id="stop3834-6-3-7-1"
         offset="0"
         style="stop-color:#000000;stop-opacity:1;" />
      <stop
         style="stop-color:#000000;stop-opacity:0.58823532;"
         offset="0.1"
         id="stop3872-2-4" />
      <stop
         id="stop3844-6-2-7-6"
         offset="0.89999998"
         style="stop-color:#000000;stop-opacity:0.58823532;" />
      <stop
         id="stop3836-5-0-2-9"
         offset="1"
         style="stop-color:#000000;stop-opacity:1;" />
    </linearGradient>
    <radialGradient
       r="43.199203"
       fy="44.892841"
       fx="13.948145"
       cy="44.892841"
       cx="13.948145"
       gradientTransform="matrix(0.97411798,0,0,0.04919072,33.86338,80.166723)"
       gradientUnits="userSpaceOnUse"
       id="radialGradient7462"
       xlink:href="#linearGradient3737"
       inkscape:collect="always" />
    <linearGradient
       id="linearGradient3737">
      <stop
         id="stop3739"
         style="stop-color:#ffffff;stop-opacity:1"
         offset="0" />
      <stop
         id="stop3741"
         style="stop-color:#ffffff;stop-opacity:0"
         offset="1" />
    </linearGradient>
    <radialGradient
       r="43.199203"
       fy="44.892841"
       fx="13.948145"
       cy="44.892841"
       cx="13.948145"
       gradientTransform="matrix(0.8883266,0,0,0.04913948,31.544517,-90.074374)"
       gradientUnits="userSpaceOnUse"
       id="radialGradient7464"
       xlink:href="#linearGradient3737"
       inkscape:collect="always" />
    <linearGradient
       y2="14.514202"
       x2="50.527882"
       y1="-28.64156"
       x1="2.7713892"
       gradientUnits="userSpaceOnUse"
       id="linearGradient4767"
       xlink:href="#linearGradient3737"
       inkscape:collect="always"
       gradientTransform="matrix(2.0189472,0,0,2.0210526,3.6206322,37.018695)" />
    <clipPath
       clipPathUnits="userSpaceOnUse"
       id="clipPath4156-4-1">
      <path
         style="opacity:0.6;fill:#ffffff;fill-opacity:1;stroke:none"
         d="m 27.046336,-55.695463 -14.21366,13.321486 h 0.06127 l 15.653407,21.770763 10.231384,-10.546177 C 38.561832,-32.30156 27.468089,-54.819245 27.046336,-55.695463 Z M 9.6468554,-39.382809 -5.2407289,-25.32124 15.987863,-7.8059573 26.372412,-18.382966 Z m 31.4906096,12.951445 -9.741259,9.713584 8.944804,12.4580526 7.780753,-7.5550056 z m -49.8397109,4.378822 -13.7541661,12.9822847 26.2830181,13.84571 0.06127,-0.0617 -0.122531,-0.0617 L 13.598503,-5.4007374 -8.7022409,-22.052595 Z m 38.0154159,7.400825 -9.802525,9.7752596 11.579232,9.5594001 7.62759,-7.40083 -8.669108,-11.0087257 z m 20.187073,5.6739697 -7.382526,7.2158 6.187844,8.54179 5.820249,-6.13651996 z m -32.195166,6.32154 -9.5574606,9.49772 13.6622686,7.1849703 7.933918,-7.6783603 z m 23.311629,2.37443004 -7.10683,6.93826996 8.362778,6.9074403 5.360756,-5.6739699 -0.06127,-0.0925 -0.0919,0.12335 -6.463539,-8.20258036 z m -8.730374,8.54178036 -7.505057,7.3391599 10.353916,5.45811 c 1.397496,-1.32103 5.67514,-6.12292 5.850882,-6.32154 z"
         id="path4158-0-8"
         inkscape:connector-curvature="0" />
    </clipPath>
  </defs>
  <metadata
     id="metadata6654">
    <rdf:RDF>
      <cc:Work
         rdf:about="">
        <dc:format>image/svg+xml</dc:format>
        <dc:type
           rdf:resource="http://purl.org/dc/dcmitype/StillImage" />
        <dc:title />
      </cc:Work>
    </rdf:RDF>
  </metadata>
  <path
     style="display:inline;opacity:0.15;fill:#000000;fill-opacity:1;fill-rule:nonzero;stroke:none;stroke-width:0.99947876"
     d="M 44.357141,0.24999995 H 3.6428533 c -1.8796383,0 -3.39285336,1.51321395 -3.39285336,3.39285575 V 44.357143 c 0,1.879643 1.51321506,3.392857 3.39285336,3.392857 H 44.357141 C 46.236784,47.75 47.75,46.236786 47.75,44.357143 V 3.6428557 c 0,-1.8796418 -1.513216,-3.39285575 -3.392859,-3.39285575 z"
     id="path3288"
     inkscape:connector-curvature="0" />
  <path
     inkscape:connector-curvature="0"
     id="path4085"
     d="M 44.039062,0.62109363 H 3.9609331 c -1.8502695,0 -3.33984031,1.48956987 -3.33984031,3.33984227 V 44.039063 c 0,1.850273 1.48957081,3.339843 3.33984031,3.339843 H 44.039062 c 1.850273,0 3.339844,-1.48957 3.339844,-3.339843 V 3.9609359 c 0,-1.8502724 -1.489571,-3.33984227 -3.339844,-3.33984227 z"
     style="display:inline;opacity:0.15;fill:#000000;fill-opacity:1;fill-rule:nonzero;stroke:none;stroke-width:0.99947876" />
  <path
     style="display:inline;fill:url(#linearGradient4071);fill-opacity:1;fill-rule:nonzero;stroke:none;stroke-width:0.99947876"
     d="M 43.720978,0.99218746 H 4.2790169 c -1.8209042,0 -3.28683014,1.46592564 -3.28683014,3.28682924 V 43.720983 c 0,1.820904 1.46592594,3.28683 3.28683014,3.28683 H 43.720978 c 1.820906,0 3.28683,-1.465926 3.28683,-3.28683 V 4.2790167 c 0,-1.8209036 -1.465924,-3.28682924 -3.28683,-3.28682924 z"
     id="rect4251-1"
     inkscape:connector-curvature="0" />
  <rect
     ry="1.9721487"
     rx="2.2868042"
     y="3.3682315"
     x="3.0805154"
     height="38.309101"
     width="42.057644"
     id="rect862"
     style="opacity:1;fill:#de4848;fill-opacity:0.97169811;stroke:none;stroke-width:0.71123183;stroke-miterlimit:4;stroke-dasharray:none;stroke-opacity:1" />
  <path
     inkscape:connector-curvature="0"
     style="display:inline;opacity:0.65818182;fill:url(#linearGradient4129);fill-opacity:1;fill-rule:nonzero;stroke:none;stroke-width:0.99947876"
     d="m 0.99218627,40.745605 v 2.96875 c 0,1.820904 1.47255273,3.293458 3.29345673,3.293458 h 39.42871 c 1.820906,0 3.29346,-1.472554 3.29346,-3.293458 v -2.96875 c 0,1.820904 -1.472554,3.293458 -3.29346,3.293458 H 4.285643 c -1.820904,0 -3.29345673,-1.472554 -3.29345673,-3.293458 z"
     id="path4118" />
  <path
     style="opacity:0.9;fill:#000000;fill-opacity:1;stroke:none;stroke-width:1.11365306"
     d="m 19.647127,6.246304 1.516789,8.44612 h 7.9831 l 1.229397,-8.44612 z M 7.0497967,18.939432 V 29.668718 L 15.511882,28.423354 15.495912,20.456221 7.0497933,18.939432 Z M 21.579037,16.09745 v 3.225171 l 7.903268,-0.01597 V 16.08148 Z m -4.518434,4.614231 v 7.887302 l 3.177274,0.01597 -0.01597,-7.903267 h -3.161308 z m 6.003291,3.86382 2.554592,2.554591 2.538626,-2.538626 -2.554592,-2.554592 z m 2.219302,5.029352 2.362996,2.362997 5.588171,-5.588169 -2.362998,-2.362998 z m 3.384834,3.480631 4.901623,7.041093 7.583944,-7.583944 -6.849499,-5.093218 z"
     id="rect3805"
     inkscape:connector-curvature="0" />
  <rect
     style="opacity:0.55;fill:url(#radialGradient7462);fill-opacity:1;stroke:none;stroke-width:0.99947876"
     id="rect4131"
     width="41.686203"
     height="2.102865"
     x="2.9095042"
     y="39.957027"
     rx="4.25"
     ry="4.25" />
  <rect
     ry="4.245573"
     rx="4.245573"
     y="-44.823299"
     x="3.0010395"
     height="2.102865"
     width="37.975258"
     id="rect4141"
     style="opacity:0.669;fill:url(#radialGradient7464);fill-opacity:1;stroke:none;stroke-width:0.99947876"
     transform="rotate(90)" />
  <rect
     transform="matrix(0.52905357,0,0,0.51838486,1.547655,18.397836)"
     style="opacity:0.43;fill:url(#linearGradient4767);fill-opacity:1;stroke:none;stroke-width:2.01999927"
     id="rect4146"
     width="75.965775"
     height="69.024437"
     x="2"
     y="-30"
     rx="7.9889488"
     ry="7.9972816"
     clip-path="url(#clipPath4156-4-1)" />
  <path
     style="color:#000000;font-style:normal;font-variant:normal;font-weight:normal;font-stretch:normal;font-size:medium;line-height:normal;font-family:Sans;-inkscape-font-specification:Sans;text-indent:0;text-align:start;text-decoration:none;text-decoration-line:none;letter-spacing:normal;word-spacing:normal;text-transform:none;writing-mode:lr-tb;direction:ltr;baseline-shift:baseline;text-anchor:start;display:inline;overflow:visible;visibility:visible;fill:#202223;fill-opacity:0.93689324;stroke:none;stroke-width:2.37426257;marker:none;enable-background:accumulate"
     d="m 5.1113668,2.5900979 c -1.5420782,0 -2.8044619,1.2565283 -2.8044619,2.7935951 v 34.278176 c 0,1.537067 1.2623837,2.793596 2.8044619,2.793596 H 43.107301 c 1.54208,0 2.804464,-1.256529 2.804464,-2.793596 V 5.383693 c 0,-1.5370663 -1.262384,-2.7935951 -2.804464,-2.7935951 z m 0,1.147639 H 43.107301 c 0.934216,0 1.658554,0.7323386 1.658554,1.6459561 v 34.278176 c 0,0.913619 -0.724338,1.645956 -1.658554,1.645956 H 5.1113668 c -0.9342158,0 -1.6585527,-0.732337 -1.6585527,-1.645956 V 5.383693 c 0,-0.9136175 0.7243369,-1.6459561 1.6585527,-1.6459561 z"
     id="path860"
     inkscape:connector-curvature="0" />
  <path
     style="color:#000000;font-style:normal;font-variant:normal;font-weight:normal;font-stretch:normal;font-size:medium;line-height:normal;font-family:Sans;-inkscape-font-specification:Sans;text-indent:0;text-align:start;text-decoration:none;text-decoration-line:none;letter-spacing:normal;word-spacing:normal;text-transform:none;writing-mode:lr-tb;direction:ltr;baseline-shift:baseline;text-anchor:start;display:inline;overflow:visible;visibility:visible;fill:#202223;fill-opacity:0.93689324;stroke:none;stroke-width:2.37426257;marker:none;enable-background:accumulate"
     d="m 5.1113668,2.5900979 c -1.5420782,0 -2.8044619,1.2565283 -2.8044619,2.7935951 v 34.278176 c 0,1.537067 1.2623837,2.793596 2.8044619,2.793596 H 43.107301 c 1.54208,0 2.804464,-1.256529 2.804464,-2.793596 V 5.383693 c 0,-1.5370663 -1.262384,-2.7935951 -2.804464,-2.7935951 z m 0,1.147639 H 43.107301 c 0.934216,0 1.658554,0.7323386 1.658554,1.6459561 v 34.278176 c 0,0.913619 -0.724338,1.645956 -1.658554,1.645956 H 5.1113668 c -0.9342158,0 -1.6585527,-0.732337 -1.6585527,-1.645956 V 5.383693 c 0,-0.9136175 0.7243369,-1.6459561 1.6585527,-1.6459561 z"
     id="path875"
     inkscape:connector-curvature="0" />
</svg>

<?xml version="1.0" encoding="UTF-8"?>
<!-- Created with Inkscape (http://www.inkscape.org/) -->
<svg version="1.1" viewBox="0 0 48 48" xmlns="http://www.w3.org/2000/svg" xmlns:cc="http://creativecommons.org/ns#" xmlns:dc="http://purl.org/dc/elements/1.1/" xmlns:rdf="http://www.w3.org/1999/02/22-rdf-syntax-ns#" xmlns:xlink="http://www.w3.org/1999/xlink">
<defs>
<linearGradient id="linearGradient4071" x1="6" x2="90" y1="47" y2="47" gradientTransform="matrix(1.106 0 0 1.1071 -5.1375 -4.0357)" gradientUnits="userSpaceOnUse">
<stop stop-color="#b2babc" offset="0"/>
<stop stop-color="#fff" offset=".25"/>
<stop stop-color="#96a1a4" offset=".5"/>
<stop stop-color="#fbf9f9" offset=".75"/>
<stop stop-color="#b2b9bc" offset="1"/>
</linearGradient>
<linearGradient id="linearGradient4129" x1="1.5" x2="94.5" y1="88.172" y2="88.172" gradientTransform="matrix(.99896 0 0 1 -2.9511e-6 2.5281e-5)" gradientUnits="userSpaceOnUse">
<stop offset="0"/>
<stop stop-opacity=".58824" offset=".1"/>
<stop stop-opacity=".58824" offset=".9"/>
<stop offset="1"/>
</linearGradient>
<radialGradient id="radialGradient7462" cx="13.948" cy="44.893" r="43.199" gradientTransform="matrix(.97412 0 0 .049191 33.863 80.167)" gradientUnits="userSpaceOnUse" xlink:href="#linearGradient3737"/>
<linearGradient id="linearGradient3737">
<stop stop-color="#fff" offset="0"/>
<stop stop-color="#fff" stop-opacity="0" offset="1"/>
</linearGradient>
<radialGradient id="radialGradient7464" cx="13.948" cy="44.893" r="43.199" gradientTransform="matrix(.88833 0 0 .049139 31.545 -90.074)" gradientUnits="userSpaceOnUse" xlink:href="#linearGradient3737"/>
<linearGradient id="linearGradient4767" x1="2.7714" x2="50.528" y1="-28.642" y2="14.514" gradientTransform="matrix(2.0189 0 0 2.0211 3.6206 37.019)" gradientUnits="userSpaceOnUse" xlink:href="#linearGradient3737"/>
<clipPath id="clipPath4156-4-1">
<path d="m27.046-55.695-14.214 13.321h0.06127l15.653 21.771 10.231-10.546c-0.2169-1.1522-11.311-23.67-11.732-24.546zm-17.399 16.313-14.888 14.062 21.229 17.515 10.385-10.577zm31.491 12.951-9.7413 9.7136 8.9448 12.458 7.7808-7.555zm-49.84 4.3788-13.754 12.982 26.283 13.846 0.06127-0.0617-0.12253-0.0617 9.8332-10.053-22.301-16.652zm38.015 7.4008-9.8025 9.7753 11.579 9.5594 7.6276-7.4008-8.6691-11.009zm20.187 5.674-7.3825 7.2158 6.1878 8.5418 5.8202-6.1365zm-32.195 6.3215-9.5575 9.4977 13.662 7.185 7.9339-7.6784zm23.312 2.3744-7.1068 6.9383 8.3628 6.9074 5.3608-5.674-0.06127-0.0925-0.0919 0.12335-6.4635-8.2026zm-8.7304 8.5418-7.5051 7.3392 10.354 5.4581c1.3975-1.321 5.6751-6.1229 5.8509-6.3215z" fill="#fff" opacity=".6"/>
</clipPath>
</defs>
<metadata>
<rdf:RDF>
<cc:Work rdf:about="">
<dc:format>image/svg+xml</dc:format>
<dc:type rdf:resource="http://purl.org/dc/dcmitype/StillImage"/>
<dc:title/>
</cc:Work>
</rdf:RDF>
</metadata>
<path d="m44.357 0.25h-40.714c-1.8796 0-3.3929 1.5132-3.3929 3.3929v40.714c0 1.8796 1.5132 3.3929 3.3929 3.3929h40.714c1.8796 0 3.3929-1.5132 3.3929-3.3929v-40.714c0-1.8796-1.5132-3.3929-3.3929-3.3929z" opacity=".15"/>
<path d="m44.039 0.62109h-40.078c-1.8503 0-3.3398 1.4896-3.3398 3.3398v40.078c0 1.8503 1.4896 3.3398 3.3398 3.3398h40.078c1.8503 0 3.3398-1.4896 3.3398-3.3398v-40.078c0-1.8503-1.4896-3.3398-3.3398-3.3398z" opacity=".15"/>
<path d="m43.721 0.99219h-39.442c-1.8209 0-3.2868 1.4659-3.2868 3.2868v39.442c0 1.8209 1.4659 3.2868 3.2868 3.2868h39.442c1.8209 0 3.2868-1.4659 3.2868-3.2868v-39.442c0-1.8209-1.4659-3.2868-3.2868-3.2868z" fill="url(#linearGradient4071)"/>
<rect x="3.0805" y="3.3682" width="42.058" height="38.309" rx="2.2868" ry="1.9721" fill="#de4848" fill-opacity=".9717"/>
<path d="m0.99219 40.746v2.9688c0 1.8209 1.4726 3.2935 3.2935 3.2935h39.429c1.8209 0 3.2935-1.4726 3.2935-3.2935v-2.9688c0 1.8209-1.4726 3.2935-3.2935 3.2935h-39.429c-1.8209 0-3.2935-1.4726-3.2935-3.2935z" fill="url(#linearGradient4129)" opacity=".65818"/>
<path d="m19.647 6.2463 1.5168 8.4461h7.9831l1.2294-8.4461zm-12.597 12.693v10.729l8.4621-1.2454-0.01597-7.9671-8.4461-1.5168zm14.529-2.842v3.2252l7.9033-0.01597v-3.2252zm-4.5184 4.6142v7.8873l3.1773 0.01597-0.01597-7.9033h-3.1613zm6.0033 3.8638 2.5546 2.5546 2.5386-2.5386-2.5546-2.5546zm2.2193 5.0294 2.363 2.363 5.5882-5.5882-2.363-2.363zm3.3848 3.4806 4.9016 7.0411 7.5839-7.5839-6.8495-5.0932z" opacity=".9"/>
<rect x="2.9095" y="39.957" width="41.686" height="2.1029" rx="4.25" ry="4.25" fill="url(#radialGradient7462)" opacity=".55"/>
<rect transform="rotate(90)" x="3.001" y="-44.823" width="37.975" height="2.1029" rx="4.2456" ry="4.2456" fill="url(#radialGradient7464)" opacity=".669"/>
<rect transform="matrix(.52905 0 0 .51838 1.5477 18.398)" x="2" y="-30" width="75.966" height="69.024" rx="7.9889" ry="7.9973" clip-path="url(#clipPath4156-4-1)" fill="url(#linearGradient4767)" opacity=".43"/>
<path d="m5.1114 2.5901c-1.5421 0-2.8045 1.2565-2.8045 2.7936v34.278c0 1.5371 1.2624 2.7936 2.8045 2.7936h37.996c1.5421 0 2.8045-1.2565 2.8045-2.7936v-34.278c0-1.5371-1.2624-2.7936-2.8045-2.7936zm0 1.1476h37.996c0.93422 0 1.6586 0.73234 1.6586 1.646v34.278c0 0.91362-0.72434 1.646-1.6586 1.646h-37.996c-0.93422 0-1.6586-0.73234-1.6586-1.646v-34.278c0-0.91362 0.72434-1.646 1.6586-1.646z" color="#000000" fill="#202223" fill-opacity=".93689" style="text-decoration-line:none;text-indent:0;text-transform:none"/>
<path d="m5.1114 2.5901c-1.5421 0-2.8045 1.2565-2.8045 2.7936v34.278c0 1.5371 1.2624 2.7936 2.8045 2.7936h37.996c1.5421 0 2.8045-1.2565 2.8045-2.7936v-34.278c0-1.5371-1.2624-2.7936-2.8045-2.7936zm0 1.1476h37.996c0.93422 0 1.6586 0.73234 1.6586 1.646v34.278c0 0.91362-0.72434 1.646-1.6586 1.646h-37.996c-0.93422 0-1.6586-0.73234-1.6586-1.646v-34.278c0-0.91362 0.72434-1.646 1.6586-1.646z" color="#000000" fill="#202223" fill-opacity=".93689" style="text-decoration-line:none;text-indent:0;text-transform:none"/>
</svg>
